; generated by Slic3r 1.37.2.1-prusa3d-win64 on 2019-05-06 at 18:57:06

; 

; external perimeters extrusion width = 0.43mm
; perimeters extrusion width = 0.70mm
; infill extrusion width = 0.70mm
; solid infill extrusion width = 0.70mm
; top infill extrusion width = 0.43mm
; first layer extrusion width = 0.42mm

M107 ; disable fan
M115 U3.1.0 ; tell printer latest fw version
M83  ; extruder relative mode
M104 S215 ; set extruder temp
M140 S55 ; set bed temp
M190 S55 ; wait for bed temp
M109 S215 ; wait for extruder temp
G28 W ; home all without mesh bed level
G80 ; mesh bed leveling
G1 Y-3.0 F1000.0 ; go outside pritn area
G1 X60.0 E9.0  F1000.0 ; intro line
G1 X100.0 E12.5  F1000.0 ; intro line
G92 E0.0
M900 K30
G21 ; set units to millimeters
G90 ; use absolute coordinates
M83 ; use relative distances for extrusion
;BEFORE_LAYER_CHANGE
;0.2


G1 E-0.80000 F2100.00000 ; retract
G1 Z0.600 F7200.000 ; lift Z
;AFTER_LAYER_CHANGE
;0.2
G1 X106.669 Y179.727 F7200.000 ; move to first skirt point
G1 Z0.200 F7200.000 ; restore layer Z
G1 E0.80000 F2100.00000 ; unretract
M204 S1000 ; adjust acceleration
G1 F1800
G1 X106.042 Y179.378 E0.02249 ; skirt
G1 X105.551 Y178.861 E0.02237 ; skirt
G1 X105.234 Y178.217 E0.02249 ; skirt
G1 X105.123 Y177.509 E0.02249 ; skirt
G1 X105.123 Y42.485 E4.23358 ; skirt
G1 X105.231 Y40.562 E0.06038 ; skirt
G1 X105.533 Y38.760 E0.05728 ; skirt
G1 X106.115 Y36.714 E0.06669 ; skirt
G1 X106.850 Y34.947 E0.06003 ; skirt
G1 X107.858 Y33.147 E0.06467 ; skirt
G1 X108.914 Y31.666 E0.05704 ; skirt
G1 X110.121 Y30.309 E0.05692 ; skirt
G1 X111.567 Y28.998 E0.06121 ; skirt
G1 X113.245 Y27.793 E0.06479 ; skirt
G1 X114.950 Y26.849 E0.06110 ; skirt
G1 X116.761 Y26.098 E0.06146 ; skirt
G1 X118.626 Y25.560 E0.06086 ; skirt
G1 X120.547 Y25.233 E0.06110 ; skirt
G1 X122.371 Y25.126 E0.05728 ; skirt
G1 X165.281 Y23.022 E1.34704 ; skirt
G1 X167.214 Y23.130 E0.06070 ; skirt
G1 X169.023 Y23.433 E0.05752 ; skirt
G1 X171.132 Y24.041 E0.06883 ; skirt
G1 X172.822 Y24.746 E0.05740 ; skirt
G1 X174.521 Y25.685 E0.06086 ; skirt
G1 X176.104 Y26.808 E0.06086 ; skirt
G1 X177.466 Y28.020 E0.05716 ; skirt
G1 X178.935 Y29.662 E0.06907 ; skirt
G1 X179.991 Y31.157 E0.05740 ; skirt
G1 X180.927 Y32.849 E0.06062 ; skirt
G1 X181.718 Y34.787 E0.06562 ; skirt
G1 X182.219 Y36.539 E0.05716 ; skirt
G1 X182.544 Y38.453 E0.06086 ; skirt
G1 X182.653 Y40.395 E0.06098 ; skirt
G1 X182.653 Y175.399 E4.23295 ; skirt
G1 X182.503 Y176.230 E0.02649 ; skirt
G1 X182.183 Y176.817 E0.02095 ; skirt
G1 X181.710 Y177.294 E0.02107 ; skirt
G1 X181.122 Y177.620 E0.02107 ; skirt
G1 X180.467 Y177.768 E0.02107 ; skirt
G1 X137.609 Y179.875 E1.34541 ; skirt
G1 X107.489 Y179.877 E0.94441 ; skirt
G1 X106.728 Y179.738 E0.02426 ; skirt
G1 F5760
G1 X106.042 Y179.378 E-0.26815 ; wipe and retract
G1 F5760
G1 X105.551 Y178.861 E-0.24709 ; wipe and retract
G1 F5760
G1 X105.238 Y178.227 E-0.24477 ; wipe and retract
G1 E-0.04000 F2100.00000 ; retract
G1 Z0.800 F7200.000 ; lift Z
G1 X114.689 Y173.700 F7200.000 ; move to first perimeter point
G1 Z0.200 F7200.000 ; restore layer Z
G1 E0.80000 F2100.00000 ; unretract
G1 F1800
G1 X114.405 Y173.014 E0.02326 ; perimeter
G1 X114.308 Y172.279 E0.02326 ; perimeter
G1 X114.405 Y171.543 E0.02326 ; perimeter
G1 X114.689 Y170.857 E0.02326 ; perimeter
G1 X115.140 Y170.269 E0.02326 ; perimeter
G1 X115.729 Y169.817 E0.02326 ; perimeter
G1 X116.414 Y169.533 E0.02326 ; perimeter
G1 X117.141 Y169.438 E0.02297 ; perimeter
G1 X117.885 Y169.533 E0.02352 ; perimeter
G1 X118.571 Y169.817 E0.02330 ; perimeter
G1 X119.160 Y170.269 E0.02326 ; perimeter
G1 X119.611 Y170.857 E0.02326 ; perimeter
G1 X119.895 Y171.543 E0.02326 ; perimeter
G1 X119.992 Y172.279 E0.02326 ; perimeter
G1 X119.895 Y173.014 E0.02326 ; perimeter
G1 X119.611 Y173.700 E0.02326 ; perimeter
G1 X119.160 Y174.288 E0.02326 ; perimeter
G1 X118.571 Y174.740 E0.02326 ; perimeter
G1 X117.886 Y175.024 E0.02326 ; perimeter
G1 X117.150 Y175.121 E0.02326 ; perimeter
G1 X116.414 Y175.024 E0.02326 ; perimeter
G1 X115.738 Y174.744 E0.02297 ; perimeter
G1 X115.141 Y174.289 E0.02352 ; perimeter
G1 X114.725 Y173.747 E0.02142 ; perimeter
G1 X115.024 Y173.518 F7200.000 ; move to first perimeter point
G1 F1800
G1 X114.772 Y172.916 E0.02046 ; perimeter
G1 X114.688 Y172.279 E0.02015 ; perimeter
G1 X114.772 Y171.641 E0.02015 ; perimeter
G1 X115.018 Y171.048 E0.02015 ; perimeter
G1 X115.409 Y170.538 E0.02015 ; perimeter
G1 X115.919 Y170.147 E0.02015 ; perimeter
G1 X116.513 Y169.901 E0.02015 ; perimeter
G1 X117.141 Y169.818 E0.01988 ; perimeter
G1 X117.787 Y169.900 E0.02040 ; perimeter
G1 X118.381 Y170.147 E0.02016 ; perimeter
G1 X118.891 Y170.538 E0.02015 ; perimeter
G1 X119.282 Y171.048 E0.02015 ; perimeter
G1 X119.528 Y171.641 E0.02015 ; perimeter
G1 X119.612 Y172.279 E0.02015 ; perimeter
G1 X119.528 Y172.916 E0.02015 ; perimeter
G1 X119.282 Y173.509 E0.02015 ; perimeter
G1 X118.891 Y174.019 E0.02015 ; perimeter
G1 X118.381 Y174.411 E0.02015 ; perimeter
G1 X117.787 Y174.656 E0.02015 ; perimeter
G1 X117.150 Y174.740 E0.02015 ; perimeter
G1 X116.513 Y174.656 E0.02015 ; perimeter
G1 X115.927 Y174.414 E0.01987 ; perimeter
G1 X115.409 Y174.020 E0.02041 ; perimeter
G1 X115.061 Y173.565 E0.01796 ; perimeter
G1 X114.624 Y173.519 F7200.000 ; move inwards before travel
G1 F5760
G1 X114.772 Y172.916 E-0.24621 ; wipe and retract
G1 F5760
G1 X114.688 Y172.279 E-0.22259 ; wipe and retract
G1 F5760
G1 X114.772 Y171.641 E-0.22259 ; wipe and retract
G1 F5760
G1 X114.848 Y171.458 E-0.06861 ; wipe and retract
G1 E-0.04000 F2100.00000 ; retract
G1 Z0.800 F7200.000 ; lift Z
G1 X124.509 Y172.286 F7200.000 ; move to first perimeter point
G1 Z0.200 F7200.000 ; restore layer Z
G1 E0.80000 F2100.00000 ; unretract
G1 F1800
G1 X124.605 Y171.543 E0.02350 ; perimeter
G1 X124.889 Y170.857 E0.02326 ; perimeter
G1 X125.340 Y170.269 E0.02326 ; perimeter
G1 X125.929 Y169.817 E0.02326 ; perimeter
G1 X126.614 Y169.533 E0.02326 ; perimeter
G1 X127.341 Y169.438 E0.02297 ; perimeter
G1 X128.085 Y169.533 E0.02352 ; perimeter
G1 X128.771 Y169.817 E0.02330 ; perimeter
G1 X129.360 Y170.269 E0.02326 ; perimeter
G1 X129.811 Y170.857 E0.02326 ; perimeter
G1 X130.095 Y171.543 E0.02326 ; perimeter
G1 X130.192 Y172.279 E0.02326 ; perimeter
G1 X130.095 Y173.014 E0.02326 ; perimeter
G1 X129.811 Y173.700 E0.02326 ; perimeter
G1 X129.360 Y174.288 E0.02326 ; perimeter
G1 X128.771 Y174.740 E0.02326 ; perimeter
G1 X128.086 Y175.024 E0.02326 ; perimeter
G1 X127.350 Y175.121 E0.02326 ; perimeter
G1 X126.614 Y175.024 E0.02326 ; perimeter
G1 X125.938 Y174.744 E0.02297 ; perimeter
G1 X125.341 Y174.289 E0.02352 ; perimeter
G1 X124.889 Y173.700 E0.02330 ; perimeter
G1 X124.608 Y173.023 E0.02297 ; perimeter
G1 X124.517 Y172.346 E0.02142 ; perimeter
G1 X124.890 Y172.295 F7200.000 ; move to first perimeter point
G1 F1800
G1 X124.972 Y171.641 E0.02066 ; perimeter
G1 X125.218 Y171.048 E0.02015 ; perimeter
G1 X125.609 Y170.538 E0.02015 ; perimeter
G1 X126.119 Y170.147 E0.02015 ; perimeter
G1 X126.713 Y169.901 E0.02015 ; perimeter
G1 X127.341 Y169.818 E0.01988 ; perimeter
G1 X127.987 Y169.900 E0.02040 ; perimeter
G1 X128.581 Y170.147 E0.02016 ; perimeter
G1 X129.091 Y170.538 E0.02015 ; perimeter
G1 X129.482 Y171.048 E0.02015 ; perimeter
G1 X129.728 Y171.641 E0.02015 ; perimeter
G1 X129.812 Y172.279 E0.02015 ; perimeter
G1 X129.728 Y172.916 E0.02015 ; perimeter
G1 X129.482 Y173.509 E0.02015 ; perimeter
G1 X129.091 Y174.019 E0.02015 ; perimeter
G1 X128.581 Y174.411 E0.02015 ; perimeter
G1 X127.987 Y174.656 E0.02015 ; perimeter
G1 X127.350 Y174.740 E0.02015 ; perimeter
G1 X126.713 Y174.656 E0.02015 ; perimeter
G1 X126.127 Y174.414 E0.01987 ; perimeter
G1 X125.609 Y174.020 E0.02040 ; perimeter
G1 X125.218 Y173.509 E0.02016 ; perimeter
G1 X124.975 Y172.924 E0.01988 ; perimeter
G1 X124.898 Y172.355 E0.01801 ; perimeter
G1 X124.543 Y172.097 F7200.000 ; move inwards before travel
G1 F5760
G1 X124.972 Y171.641 E-0.24839 ; wipe and retract
G1 F5760
G1 X125.218 Y171.048 E-0.22258 ; wipe and retract
G1 F5760
G1 X125.609 Y170.538 E-0.22259 ; wipe and retract
G1 F5760
G1 X125.761 Y170.421 E-0.06644 ; wipe and retract
G1 E-0.04000 F2100.00000 ; retract
G1 Z0.800 F7200.000 ; lift Z
G1 X133.587 Y126.226 F7200.000 ; move to first perimeter point
G1 Z0.200 F7200.000 ; restore layer Z
G1 E0.80000 F2100.00000 ; unretract
G1 F1800
G1 X133.587 Y169.400 E1.35370 ; perimeter
G1 X111.413 Y169.400 E0.69526 ; perimeter
G1 X111.413 Y126.226 E1.35370 ; perimeter
G1 X115.580 Y126.226 E0.13065 ; perimeter
G1 X115.140 Y125.888 E0.01737 ; perimeter
G1 X114.689 Y125.300 E0.02326 ; perimeter
G1 X114.405 Y124.614 E0.02326 ; perimeter
G1 X114.308 Y123.879 E0.02326 ; perimeter
G1 X114.405 Y123.143 E0.02326 ; perimeter
G1 X114.689 Y122.457 E0.02326 ; perimeter
G1 X115.140 Y121.869 E0.02326 ; perimeter
G1 X115.729 Y121.417 E0.02326 ; perimeter
G1 X116.414 Y121.133 E0.02326 ; perimeter
G1 X117.141 Y121.038 E0.02297 ; perimeter
G1 X117.885 Y121.133 E0.02352 ; perimeter
G1 X118.571 Y121.417 E0.02330 ; perimeter
G1 X119.160 Y121.869 E0.02326 ; perimeter
G1 X119.611 Y122.457 E0.02326 ; perimeter
G1 X119.895 Y123.143 E0.02326 ; perimeter
G1 X119.992 Y123.879 E0.02326 ; perimeter
G1 X119.895 Y124.614 E0.02326 ; perimeter
G1 X119.611 Y125.300 E0.02326 ; perimeter
G1 X119.160 Y125.888 E0.02326 ; perimeter
G1 X118.720 Y126.226 E0.01737 ; perimeter
G1 X125.780 Y126.226 E0.22135 ; perimeter
G1 X125.340 Y125.888 E0.01737 ; perimeter
G1 X124.889 Y125.300 E0.02326 ; perimeter
G1 X124.605 Y124.614 E0.02326 ; perimeter
G1 X124.508 Y123.879 E0.02326 ; perimeter
G1 X124.605 Y123.143 E0.02326 ; perimeter
G1 X124.889 Y122.457 E0.02326 ; perimeter
G1 X125.340 Y121.869 E0.02326 ; perimeter
G1 X125.929 Y121.417 E0.02326 ; perimeter
G1 X126.614 Y121.133 E0.02326 ; perimeter
G1 X127.341 Y121.038 E0.02297 ; perimeter
G1 X128.085 Y121.133 E0.02352 ; perimeter
G1 X128.771 Y121.417 E0.02330 ; perimeter
G1 X129.360 Y121.869 E0.02326 ; perimeter
G1 X129.811 Y122.457 E0.02326 ; perimeter
G1 X130.095 Y123.143 E0.02326 ; perimeter
G1 X130.192 Y123.879 E0.02326 ; perimeter
G1 X130.095 Y124.614 E0.02326 ; perimeter
G1 X129.815 Y125.291 E0.02297 ; perimeter
G1 X129.361 Y125.888 E0.02352 ; perimeter
G1 X128.920 Y126.226 E0.01741 ; perimeter
G1 X133.527 Y126.226 E0.14445 ; perimeter
G1 X133.210 Y126.603 F7200.000 ; move to first perimeter point
G1 F1800
G1 X133.210 Y169.023 E1.33005 ; perimeter
G1 X111.790 Y169.023 E0.67161 ; perimeter
G1 X111.790 Y126.603 E1.33005 ; perimeter
G1 X133.150 Y126.603 E0.66973 ; perimeter
G1 X133.583 Y126.459 F7200.000 ; move inwards before travel
G1 F5760
G1 X133.153 Y128.797 E-0.76000 ; wipe and retract
G1 E-0.04000 F2100.00000 ; retract
G1 Z0.800 F7200.000 ; lift Z
G1 X119.528 Y124.516 F7200.000 ; move to first perimeter point
G1 Z0.200 F7200.000 ; restore layer Z
G1 E0.80000 F2100.00000 ; unretract
G1 F1800
G1 X119.282 Y125.109 E0.02015 ; perimeter
G1 X118.891 Y125.619 E0.02015 ; perimeter
G1 X118.381 Y126.011 E0.02015 ; perimeter
G1 X117.787 Y126.256 E0.02015 ; perimeter
G1 X117.150 Y126.340 E0.02015 ; perimeter
G1 X116.513 Y126.256 E0.02015 ; perimeter
G1 X115.919 Y126.011 E0.02015 ; perimeter
G1 X115.409 Y125.619 E0.02015 ; perimeter
G1 X115.018 Y125.109 E0.02015 ; perimeter
G1 X114.772 Y124.516 E0.02015 ; perimeter
G1 X114.688 Y123.879 E0.02015 ; perimeter
G1 X114.772 Y123.241 E0.02015 ; perimeter
G1 X115.018 Y122.648 E0.02015 ; perimeter
G1 X115.409 Y122.138 E0.02015 ; perimeter
G1 X115.919 Y121.747 E0.02015 ; perimeter
G1 X116.513 Y121.501 E0.02015 ; perimeter
G1 X117.141 Y121.418 E0.01987 ; perimeter
G1 X117.787 Y121.500 E0.02040 ; perimeter
G1 X118.381 Y121.747 E0.02016 ; perimeter
G1 X118.891 Y122.138 E0.02015 ; perimeter
G1 X119.282 Y122.648 E0.02015 ; perimeter
G1 X119.528 Y123.241 E0.02015 ; perimeter
G1 X119.612 Y123.879 E0.02015 ; perimeter
G1 X119.536 Y124.456 E0.01827 ; perimeter
G1 X119.811 Y124.799 F7200.000 ; move inwards before travel
G1 F5760
G1 X119.282 Y125.109 E-0.24272 ; wipe and retract
G1 F5760
G1 X118.891 Y125.619 E-0.22259 ; wipe and retract
G1 F5760
G1 X118.381 Y126.011 E-0.22259 ; wipe and retract
G1 F5760
G1 X118.189 Y126.090 E-0.07210 ; wipe and retract
G1 E-0.04000 F2100.00000 ; retract
G1 Z0.800 F7200.000 ; lift Z
G1 X124.888 Y123.879 F7200.000 ; move to first perimeter point
G1 Z0.200 F7200.000 ; restore layer Z
G1 E0.80000 F2100.00000 ; unretract
G1 F1800
G1 X124.972 Y123.241 E0.02015 ; perimeter
G1 X125.218 Y122.648 E0.02015 ; perimeter
G1 X125.609 Y122.138 E0.02015 ; perimeter
G1 X126.119 Y121.747 E0.02015 ; perimeter
G1 X126.713 Y121.501 E0.02015 ; perimeter
G1 X127.341 Y121.418 E0.01987 ; perimeter
G1 X127.987 Y121.500 E0.02040 ; perimeter
G1 X128.581 Y121.747 E0.02016 ; perimeter
G1 X129.091 Y122.138 E0.02015 ; perimeter
G1 X129.482 Y122.648 E0.02015 ; perimeter
G1 X129.728 Y123.241 E0.02015 ; perimeter
G1 X129.812 Y123.879 E0.02015 ; perimeter
G1 X129.728 Y124.516 E0.02015 ; perimeter
G1 X129.485 Y125.101 E0.01987 ; perimeter
G1 X129.091 Y125.619 E0.02040 ; perimeter
G1 X128.581 Y126.011 E0.02016 ; perimeter
G1 X127.987 Y126.256 E0.02015 ; perimeter
G1 X127.350 Y126.340 E0.02015 ; perimeter
G1 X126.713 Y126.256 E0.02015 ; perimeter
G1 X126.119 Y126.011 E0.02015 ; perimeter
G1 X125.609 Y125.619 E0.02015 ; perimeter
G1 X125.218 Y125.109 E0.02015 ; perimeter
G1 X124.972 Y124.516 E0.02015 ; perimeter
G1 X124.896 Y123.938 E0.01827 ; perimeter
G1 X124.542 Y123.679 F7200.000 ; move inwards before travel
G1 F5760
G1 X124.972 Y123.241 E-0.24272 ; wipe and retract
G1 F5760
G1 X125.218 Y122.648 E-0.22259 ; wipe and retract
G1 F5760
G1 X125.609 Y122.138 E-0.22259 ; wipe and retract
G1 F5760
G1 X125.774 Y122.011 E-0.07210 ; wipe and retract
G1 E-0.04000 F2100.00000 ; retract
G1 Z0.800 F7200.000 ; lift Z
G1 X122.500 Y48.742 F7200.000 ; move to first perimeter point
G1 Z0.200 F7200.000 ; restore layer Z
G1 E0.80000 F2100.00000 ; unretract
G1 F1800
G1 X121.894 Y48.662 E0.01917 ; perimeter
G1 X121.329 Y48.428 E0.01917 ; perimeter
G1 X120.844 Y48.056 E0.01917 ; perimeter
G1 X120.472 Y47.571 E0.01917 ; perimeter
G1 X120.238 Y47.006 E0.01917 ; perimeter
G1 X120.158 Y46.400 E0.01917 ; perimeter
G1 X120.238 Y45.794 E0.01917 ; perimeter
G1 X120.472 Y45.229 E0.01917 ; perimeter
G1 X120.844 Y44.744 E0.01917 ; perimeter
G1 X121.329 Y44.372 E0.01917 ; perimeter
G1 X121.894 Y44.138 E0.01917 ; perimeter
G1 X122.500 Y44.058 E0.01917 ; perimeter
G1 X123.106 Y44.138 E0.01917 ; perimeter
G1 X123.671 Y44.372 E0.01917 ; perimeter
G1 X124.156 Y44.744 E0.01917 ; perimeter
G1 X124.528 Y45.229 E0.01917 ; perimeter
G1 X124.762 Y45.794 E0.01917 ; perimeter
G1 X124.842 Y46.400 E0.01917 ; perimeter
G1 X124.762 Y47.006 E0.01917 ; perimeter
G1 X124.528 Y47.571 E0.01917 ; perimeter
G1 X124.156 Y48.056 E0.01917 ; perimeter
G1 X123.671 Y48.428 E0.01917 ; perimeter
G1 X123.106 Y48.662 E0.01917 ; perimeter
G1 X122.559 Y48.734 E0.01729 ; perimeter
G1 X122.510 Y48.360 F7200.000 ; move to first perimeter point
G1 F1800
G1 X121.992 Y48.295 E0.01637 ; perimeter
G1 X121.519 Y48.099 E0.01606 ; perimeter
G1 X121.113 Y47.787 E0.01606 ; perimeter
G1 X120.801 Y47.381 E0.01606 ; perimeter
G1 X120.605 Y46.908 E0.01606 ; perimeter
G1 X120.538 Y46.400 E0.01606 ; perimeter
G1 X120.605 Y45.892 E0.01606 ; perimeter
G1 X120.801 Y45.419 E0.01606 ; perimeter
G1 X121.113 Y45.013 E0.01606 ; perimeter
G1 X121.519 Y44.701 E0.01606 ; perimeter
G1 X121.992 Y44.505 E0.01606 ; perimeter
G1 X122.500 Y44.438 E0.01606 ; perimeter
G1 X123.008 Y44.505 E0.01606 ; perimeter
G1 X123.481 Y44.701 E0.01606 ; perimeter
G1 X123.887 Y45.013 E0.01606 ; perimeter
G1 X124.199 Y45.419 E0.01606 ; perimeter
G1 X124.395 Y45.892 E0.01606 ; perimeter
G1 X124.462 Y46.400 E0.01606 ; perimeter
G1 X124.395 Y46.908 E0.01606 ; perimeter
G1 X124.199 Y47.381 E0.01606 ; perimeter
G1 X123.887 Y47.787 E0.01606 ; perimeter
G1 X123.481 Y48.099 E0.01606 ; perimeter
G1 X123.008 Y48.295 E0.01606 ; perimeter
G1 X122.570 Y48.353 E0.01385 ; perimeter
G1 X122.312 Y48.708 F7200.000 ; move inwards before travel
G1 F5760
G1 X121.992 Y48.295 E-0.20102 ; wipe and retract
G1 F5760
